symbols-de/shields/motorway_3x2_z18.svg

<?xml version="1.0" encoding="UTF-8" standalone="no"?>
<svg
   xmlns:dc="http://purl.org/dc/elements/1.1/"
   xmlns:cc="http://creativecommons.org/ns#"
   xmlns:rdf="http://www.w3.org/1999/02/22-rdf-syntax-ns#"
   xmlns:svg="http://www.w3.org/2000/svg"
   xmlns="http://www.w3.org/2000/svg"
   xmlns:sodipodi="http://sodipodi.sourceforge.net/DTD/sodipodi-0.dtd"
   xmlns:inkscape="http://www.inkscape.org/namespaces/inkscape"
   width="100%"
   height="100%"
   viewBox="0 0 31.0 28.0"
   id="svg2"
   version="1.1"
   inkscape:version="0.91 r13725"
   sodipodi:docname="autobahn_3x2_z18.svg">
  <metadata
     id="metadata9">
    <rdf:RDF>
      <cc:Work
         rdf:about="">
        <dc:format>image/svg+xml</dc:format>
        <dc:type
           rdf:resource="http://purl.org/dc/dcmitype/StillImage" />
        <dc:title></dc:title>
      </cc:Work>
    </rdf:RDF>
  </metadata>
  <defs
     id="defs7" />
  <sodipodi:namedview
     pagecolor="#ffffff"
     bordercolor="#666666"
     borderopacity="1"
     objecttolerance="10"
     gridtolerance="10"
     guidetolerance="10"
     inkscape:pageopacity="0"
     inkscape:pageshadow="2"
     inkscape:window-width="851"
     inkscape:window-height="583"
     id="namedview5"
     showgrid="false"
     inkscape:zoom="8.4285714"
     inkscape:cx="15.5"
     inkscape:cy="14"
     inkscape:window-x="276"
     inkscape:window-y="312"
     inkscape:window-maximized="0"
     inkscape:current-layer="svg2" />
  <path
     style="fill:#365eaf;fill-opacity:1;stroke:#0528a2;stroke-width:1;stroke-miterlimit:4;stroke-dasharray:none;stroke-opacity:1"
     d="m 15.5,0.5000022 c -0.215053,0 -0.322266,0.00389 -0.322266,0.013759 L 0.984525,2.5910376 C 0.661944,2.6906456 0.5,2.841213 0.5,3.0404255 c 0,7.3063845 0,14.6127685 0,21.9191525 0,0.199212 0.161944,0.349785 0.484525,0.449388 l 14.193209,2.077274 c 0,0.0099 0.107215,0.01376 0.322266,0.01376 0.215054,0 0.322265,-0.0039 0.322265,-0.01376 L 30.015476,25.408966 C 30.338057,25.309356 30.5,25.158789 30.5,24.959578 c 0,-7.306385 0,-14.612768 0,-21.9191525 0,-0.1992125 -0.161943,-0.349785 -0.484524,-0.4493879 L 15.822265,0.5137582 c 0,-0.00994 -0.107214,-0.013759 -0.322265,-0.013759 z"
     id="path6"
     inkscape:connector-curvature="0"
     sodipodi:nodetypes="sccccccsccccccs" />
</svg>

<?xml version="1.0" encoding="UTF-8"?>
<svg xmlns="http://www.w3.org/2000/svg" xmlns:xlink="http://www.w3.org/1999/xlink" width="30pt" height="36pt" viewBox="0 0 30 36" version="1.1">
<g id="surface1">
<path style="fill-rule:nonzero;fill:rgb(21.176471%,36.862745%,68.627451%);fill-opacity:1;stroke-width:1;stroke-linecap:butt;stroke-linejoin:miter;stroke:rgb(1.960784%,15.686275%,63.529412%);stroke-opacity:1;stroke-miterlimit:4;" d="M 15.5 0.501302 C 15.286068 0.501302 15.177083 0.50434 15.177083 0.513455 L 0.984896 2.59158 C 0.661979 2.69184 0.500521 2.840712 0.500521 3.041233 C 0.500521 10.34809 0.500521 17.65191 0.500521 24.958767 C 0.500521 25.159288 0.661979 25.30816 0.984896 25.40842 L 15.177083 27.486545 C 15.177083 27.49566 15.286068 27.498698 15.5 27.498698 C 15.713932 27.498698 15.822917 27.49566 15.822917 27.486545 L 30.015104 25.40842 C 30.338021 25.30816 30.499479 25.159288 30.499479 24.958767 C 30.499479 17.65191 30.499479 10.34809 30.499479 3.041233 C 30.499479 2.840712 30.338021 2.69184 30.015104 2.59158 L 15.822917 0.513455 C 15.822917 0.50434 15.713932 0.501302 15.5 0.501302 Z M 15.5 0.501302 " transform="matrix(0.967742,0,0,1.285714,0,0)"/>
</g>
</svg>
